docs/public/img/providers/united-effects.svg

<?xml version="1.0" encoding="UTF-8"?>
<!DOCTYPE svg PUBLIC "-//W3C//DTD SVG 1.1//EN" "http://www.w3.org/Graphics/SVG/1.1/DTD/svg11.dtd">
<svg xmlns="http://www.w3.org/2000/svg" version="1.1" width="105px" height="80px" style="shape-rendering:geometricPrecision; text-rendering:geometricPrecision; image-rendering:optimizeQuality; fill-rule:evenodd; clip-rule:evenodd" xmlns:xlink="http://www.w3.org/1999/xlink">
<g><path style="opacity:0.999" fill="#ff3534" d="M -0.5,-0.5 C 4.5,-0.5 9.5,-0.5 14.5,-0.5C 9.93246,6.34294 4.93246,13.0096 -0.5,19.5C -0.5,12.8333 -0.5,6.16667 -0.5,-0.5 Z"/></g>
<g><path style="opacity:0.988" fill="#ff3b35" d="M 14.5,-0.5 C 17.1667,-0.5 19.8333,-0.5 22.5,-0.5C 22.5,1.83333 22.5,4.16667 22.5,6.5C 20.629,6.85883 19.129,7.85883 18,9.5C 15.9024,13.5974 13.069,17.0974 9.5,20C 9.83333,20.3333 10.1667,20.6667 10.5,21C 6.01152,24.5012 2.34485,28.6679 -0.5,33.5C -0.5,28.8333 -0.5,24.1667 -0.5,19.5C 4.93246,13.0096 9.93246,6.34294 14.5,-0.5 Z"/></g>
<g><path style="opacity:0.727" fill="#ff4837" d="M 42.5,-0.5 C 44.5,-0.5 46.5,-0.5 48.5,-0.5C 45.2095,3.08126 42.8762,7.08126 41.5,11.5C 41.2367,7.39977 41.5701,3.39977 42.5,-0.5 Z"/></g>
<g><path style="opacity:0.926" fill="#ff4e37" d="M 48.5,-0.5 C 52.5,-0.5 56.5,-0.5 60.5,-0.5C 60.0472,0.458367 59.3805,1.2917 58.5,2C 58.8333,2.33333 59.1667,2.66667 59.5,3C 57.114,5.59685 54.614,8.09685 52,10.5C 51.0446,13.0036 49.8779,15.337 48.5,17.5C 46.4671,19.1631 44.6338,21.1631 43,23.5C 42.8091,25.7078 42.3091,27.7078 41.5,29.5C 41.5,23.5 41.5,17.5 41.5,11.5C 42.8762,7.08126 45.2095,3.08126 48.5,-0.5 Z"/></g>
<g><path style="opacity:1" fill="#ff5538" d="M 65.5,-0.5 C 67.5,-0.5 69.5,-0.5 71.5,-0.5C 71.6495,0.551975 71.4828,1.55198 71,2.5C 66.7078,6.94641 62.5412,11.4464 58.5,16C 61.277,18.1734 61.1103,18.6734 58,17.5C 53.5722,23.9218 48.5722,30.5884 43,37.5C 42.8091,35.2922 42.3091,33.2922 41.5,31.5C 41.5,30.8333 41.5,30.1667 41.5,29.5C 42.3091,27.7078 42.8091,25.7078 43,23.5C 44.6338,21.1631 46.4671,19.1631 48.5,17.5C 50.6548,18.1612 52.6548,17.4945 54.5,15.5C 54.1667,14.8333 53.8333,14.1667 53.5,13.5C 55.2673,11.4582 57.6006,9.29149 60.5,7C 60.1654,5.49738 60.1654,4.16404 60.5,3C 61,2.5 61.5,2 62,1.5C 65.2073,4.15018 65.7073,3.98351 63.5,1C 64.4158,0.721579 65.0825,0.221579 65.5,-0.5 Z"/></g>
<g><path style="opacity:0.998" fill="#ff5a39" d="M 71.5,-0.5 C 75.5,-0.5 79.5,-0.5 83.5,-0.5C 78.9843,6.10433 74.3176,11.9377 69.5,17C 70.056,17.3826 70.3893,17.8826 70.5,18.5C 69.1667,18.5 67.8333,18.5 66.5,18.5C 66.5,19.8333 66.5,21.1667 66.5,22.5C 57.9571,31.9056 50.1238,41.9056 43,52.5C 42.79,50.9419 42.29,49.6085 41.5,48.5C 41.5,42.8333 41.5,37.1667 41.5,31.5C 42.3091,33.2922 42.8091,35.2922 43,37.5C 48.5722,30.5884 53.5722,23.9218 58,17.5C 61.1103,18.6734 61.277,18.1734 58.5,16C 62.5412,11.4464 66.7078,6.94641 71,2.5C 71.4828,1.55198 71.6495,0.551975 71.5,-0.5 Z"/></g>
<g><path style="opacity:0.97" fill="#ff6039" d="M 83.5,-0.5 C 87.5,-0.5 91.5,-0.5 95.5,-0.5C 94.0448,1.892 92.0448,3.72533 89.5,5C 90.0606,6.56554 89.3939,7.89887 87.5,9C 87.8333,9.33333 88.1667,9.66667 88.5,10C 85.8333,12 83.5,14.3333 81.5,17C 82.4158,17.2784 83.0825,17.7784 83.5,18.5C 79.1667,18.5 74.8333,18.5 70.5,18.5C 70.3893,17.8826 70.056,17.3826 69.5,17C 74.3176,11.9377 78.9843,6.10433 83.5,-0.5 Z"/></g>
<g><path style="opacity:0.962" fill="#ff673a" d="M 95.5,-0.5 C 98.5,-0.5 101.5,-0.5 104.5,-0.5C 104.5,1.5 104.5,3.5 104.5,5.5C 102.513,6.16418 100.846,7.33085 99.5,9C 99.8333,9.33333 100.167,9.66667 100.5,10C 98.684,12.3169 96.684,14.4835 94.5,16.5C 95.2427,17.1818 95.9094,17.8485 96.5,18.5C 92.1667,18.5 87.8333,18.5 83.5,18.5C 83.0825,17.7784 82.4158,17.2784 81.5,17C 83.5,14.3333 85.8333,12 88.5,10C 88.1667,9.66667 87.8333,9.33333 87.5,9C 89.3939,7.89887 90.0606,6.56554 89.5,5C 92.0448,3.72533 94.0448,1.892 95.5,-0.5 Z"/></g>
<g><path style="opacity:0.999" fill="#ff5238" d="M 60.5,-0.5 C 62.1667,-0.5 63.8333,-0.5 65.5,-0.5C 65.0825,0.221579 64.4158,0.721579 63.5,1C 65.7073,3.98351 65.2073,4.15018 62,1.5C 61.5,2 61,2.5 60.5,3C 60.1654,4.16404 60.1654,5.49738 60.5,7C 57.6006,9.29149 55.2673,11.4582 53.5,13.5C 53.8333,14.1667 54.1667,14.8333 54.5,15.5C 52.6548,17.4945 50.6548,18.1612 48.5,17.5C 49.8779,15.337 51.0446,13.0036 52,10.5C 54.614,8.09685 57.114,5.59685 59.5,3C 59.1667,2.66667 58.8333,2.33333 58.5,2C 59.3805,1.2917 60.0472,0.458367 60.5,-0.5 Z"/></g>
<g><path style="opacity:0.94" fill="#ff6c3b" d="M 104.5,5.5 C 104.5,9.83333 104.5,14.1667 104.5,18.5C 101.833,18.5 99.1667,18.5 96.5,18.5C 95.9094,17.8485 95.2427,17.1818 94.5,16.5C 96.684,14.4835 98.684,12.3169 100.5,10C 100.167,9.66667 99.8333,9.33333 99.5,9C 100.846,7.33085 102.513,6.16418 104.5,5.5 Z"/></g>
<g><path style="opacity:0.978" fill="#ff4136" d="M 22.5,6.5 C 22.5,11.1667 22.5,15.8333 22.5,20.5C 21.2794,21.0283 20.1127,21.695 19,22.5C 16.462,27.8571 12.6287,32.5237 7.5,36.5C 6.2384,41.0722 3.57173,44.4055 -0.5,46.5C -0.5,42.1667 -0.5,37.8333 -0.5,33.5C 2.34485,28.6679 6.01152,24.5012 10.5,21C 10.1667,20.6667 9.83333,20.3333 9.5,20C 13.069,17.0974 15.9024,13.5974 18,9.5C 19.129,7.85883 20.629,6.85883 22.5,6.5 Z"/></g>
<g><path style="opacity:0.973" fill="#ff4737" d="M 22.5,20.5 C 22.5,25.1667 22.5,29.8333 22.5,34.5C 21.0689,35.0819 19.7356,35.9152 18.5,37C 18.8333,37.3333 19.1667,37.6667 19.5,38C 18.552,38.4828 17.552,38.6495 16.5,38.5C 16.3739,41.4678 14.8739,43.4678 12,44.5C 9.46418,49.3885 6.46418,54.0551 3,58.5C 2.32924,59.2524 1.4959,59.5858 0.5,59.5C 0.166667,59.5 -0.166667,59.5 -0.5,59.5C -0.5,55.1667 -0.5,50.8333 -0.5,46.5C 3.57173,44.4055 6.2384,41.0722 7.5,36.5C 12.6287,32.5237 16.462,27.8571 19,22.5C 20.1127,21.695 21.2794,21.0283 22.5,20.5 Z"/></g>
<g><path style="opacity:0.988" fill="#ff6039" d="M 66.5,22.5 C 66.5,24.8333 66.5,27.1667 66.5,29.5C 68.1667,29.5 69.8333,29.5 71.5,29.5C 58.7428,45.9759 45.7428,62.6426 32.5,79.5C 28.8333,79.5 25.1667,79.5 21.5,79.5C 26.1909,73.7683 30.5242,67.7683 34.5,61.5C 40.6817,59.3022 43.0151,54.9689 41.5,48.5C 42.29,49.6085 42.79,50.9419 43,52.5C 50.1238,41.9056 57.9571,31.9056 66.5,22.5 Z"/></g>
<g><path style="opacity:0.991" fill="#ff663a" d="M 71.5,29.5 C 75.5,29.5 79.5,29.5 83.5,29.5C 78.2195,35.6329 73.8862,41.9662 70.5,48.5C 69.1667,48.5 67.8333,48.5 66.5,48.5C 66.5,49.8333 66.5,51.1667 66.5,52.5C 58.6787,61.8992 51.3453,70.8992 44.5,79.5C 40.5,79.5 36.5,79.5 32.5,79.5C 45.7428,62.6426 58.7428,45.9759 71.5,29.5 Z"/></g>
<g><path style="opacity:0.951" fill="#ff6d3b" d="M 83.5,29.5 C 90.5,27.8333 93.1667,30.5 91.5,37.5C 89.9826,37.5106 88.8159,38.1772 88,39.5C 86.0672,42.5053 84.2338,45.5053 82.5,48.5C 78.5,48.5 74.5,48.5 70.5,48.5C 73.8862,41.9662 78.2195,35.6329 83.5,29.5 Z"/></g>
<g><path style="opacity:0.964" fill="#ff4d37" d="M 22.5,34.5 C 22.5,39.5 22.5,44.5 22.5,49.5C 21.3994,50.8484 20.3994,52.3484 19.5,54C 18.5,54.3333 17.5,54.6667 16.5,55C 17.5981,55.7697 17.5981,56.603 16.5,57.5C 15.1073,60.0171 13.1073,61.6837 10.5,62.5C 9.64733,65.368 8.314,68.0347 6.5,70.5C 2.82434,67.8059 0.824338,64.1392 0.5,59.5C 1.4959,59.5858 2.32924,59.2524 3,58.5C 6.46418,54.0551 9.46418,49.3885 12,44.5C 14.8739,43.4678 16.3739,41.4678 16.5,38.5C 17.552,38.6495 18.552,38.4828 19.5,38C 19.1667,37.6667 18.8333,37.3333 18.5,37C 19.7356,35.9152 21.0689,35.0819 22.5,34.5 Z"/></g>
<g><path style="opacity:0.846" fill="#ff723c" d="M 91.5,37.5 C 91.665,40.8499 91.4983,44.1832 91,47.5C 88.2809,48.4438 85.4475,48.7771 82.5,48.5C 84.2338,45.5053 86.0672,42.5053 88,39.5C 88.8159,38.1772 89.9826,37.5106 91.5,37.5 Z"/></g>
<g><path style="opacity:0.98" fill="#ff6d3b" d="M 66.5,52.5 C 66.5,55.1667 66.5,57.8333 66.5,60.5C 68.5,60.5 70.5,60.5 72.5,60.5C 69.4713,62.372 67.3046,65.0386 66,68.5C 65.6667,68.1667 65.3333,67.8333 65,67.5C 64.5,68.6667 63.6667,69.5 62.5,70C 62.5,71 62.5,72 62.5,73C 61.5,73.3333 60.5,73.6667 59.5,74C 59.8333,74.3333 60.1667,74.6667 60.5,75C 58.8588,76.129 57.8588,77.629 57.5,79.5C 53.1667,79.5 48.8333,79.5 44.5,79.5C 51.3453,70.8992 58.6787,61.8992 66.5,52.5 Z"/></g>
<g><path style="opacity:0.993" fill="#ff5538" d="M 22.5,49.5 C 22.0216,53.3375 23.0216,56.6709 25.5,59.5C 24.2434,61.4222 23.0768,63.4222 22,65.5C 21.6667,64.8333 21.3333,64.1667 21,63.5C 20.2689,65.8987 19.1022,68.0653 17.5,70C 18.6537,70.9138 18.487,71.7471 17,72.5C 16.6667,72.1667 16.3333,71.8333 16,71.5C 14.8978,72.949 13.7311,74.2823 12.5,75.5C 10.9731,75.573 9.97306,74.9063 9.5,73.5C 10.9366,71.0402 11.9366,68.3735 12.5,65.5C 14.4286,65.7692 16.0953,65.2692 17.5,64C 16.5462,62.0208 16.2129,59.8541 16.5,57.5C 17.5981,56.603 17.5981,55.7697 16.5,55C 17.5,54.6667 18.5,54.3333 19.5,54C 20.3994,52.3484 21.3994,50.8484 22.5,49.5 Z"/></g>
<g><path style="opacity:0.999" fill="#ff5238" d="M 16.5,57.5 C 16.2129,59.8541 16.5462,62.0208 17.5,64C 16.0953,65.2692 14.4286,65.7692 12.5,65.5C 11.9366,68.3735 10.9366,71.0402 9.5,73.5C 8.16667,72.8333 7.16667,71.8333 6.5,70.5C 8.314,68.0347 9.64733,65.368 10.5,62.5C 13.1073,61.6837 15.1073,60.0171 16.5,57.5 Z"/></g>
<g><path style="opacity:0.984" fill="#ff5a39" d="M 25.5,59.5 C 28.2457,61.1264 31.2457,61.7931 34.5,61.5C 30.5242,67.7683 26.1909,73.7683 21.5,79.5C 20.8333,79.5 20.1667,79.5 19.5,79.5C 17.036,78.4335 14.7026,77.1002 12.5,75.5C 13.7311,74.2823 14.8978,72.949 16,71.5C 16.3333,71.8333 16.6667,72.1667 17,72.5C 18.487,71.7471 18.6537,70.9138 17.5,70C 19.1022,68.0653 20.2689,65.8987 21,63.5C 21.3333,64.1667 21.6667,64.8333 22,65.5C 23.0768,63.4222 24.2434,61.4222 25.5,59.5 Z"/></g>
<g><path style="opacity:0.975" fill="#ff733c" d="M 72.5,60.5 C 75.1667,60.5 77.8333,60.5 80.5,60.5C 81.7914,61.4728 81.7914,62.4728 80.5,63.5C 76.3384,68.9883 72.0051,74.3216 67.5,79.5C 64.1667,79.5 60.8333,79.5 57.5,79.5C 57.8588,77.629 58.8588,76.129 60.5,75C 60.1667,74.6667 59.8333,74.3333 59.5,74C 60.5,73.6667 61.5,73.3333 62.5,73C 62.5,72 62.5,71 62.5,70C 63.6667,69.5 64.5,68.6667 65,67.5C 65.3333,67.8333 65.6667,68.1667 66,68.5C 67.3046,65.0386 69.4713,62.372 72.5,60.5 Z"/></g>
<g><path style="opacity:0.959" fill="#ff793c" d="M 80.5,60.5 C 85.1667,60.5 89.8333,60.5 94.5,60.5C 92.8494,61.547 91.1828,62.7137 89.5,64C 90.3452,65.5581 89.6785,66.5581 87.5,67C 87.8333,67.3333 88.1667,67.6667 88.5,68C 85.2854,71.7088 82.2854,75.5421 79.5,79.5C 75.5,79.5 71.5,79.5 67.5,79.5C 72.0051,74.3216 76.3384,68.9883 80.5,63.5C 81.7914,62.4728 81.7914,61.4728 80.5,60.5 Z"/></g>
<g><path style="opacity:0.98" fill="#ff803d" d="M 94.5,60.5 C 97.8333,60.5 101.167,60.5 104.5,60.5C 104.5,61.8333 104.5,63.1667 104.5,64.5C 103.357,64.9081 102.357,65.5748 101.5,66.5C 98.7176,71.0932 95.7176,75.4265 92.5,79.5C 88.1667,79.5 83.8333,79.5 79.5,79.5C 82.2854,75.5421 85.2854,71.7088 88.5,68C 88.1667,67.6667 87.8333,67.3333 87.5,67C 89.6785,66.5581 90.3452,65.5581 89.5,64C 91.1828,62.7137 92.8494,61.547 94.5,60.5 Z"/></g>
<g><path style="opacity:0.998" fill="#ff873e" d="M 104.5,73.5 C 104.5,75.5 104.5,77.5 104.5,79.5C 102.167,79.5 99.8333,79.5 97.5,79.5C 99.7844,77.6388 101.618,75.3055 103,72.5C 103.383,73.056 103.883,73.3893 104.5,73.5 Z"/></g>
<g><path style="opacity:0.999" fill="#ff853e" d="M 104.5,64.5 C 104.5,67.5 104.5,70.5 104.5,73.5C 103.883,73.3893 103.383,73.056 103,72.5C 101.618,75.3055 99.7844,77.6388 97.5,79.5C 95.8333,79.5 94.1667,79.5 92.5,79.5C 95.7176,75.4265 98.7176,71.0932 101.5,66.5C 102.357,65.5748 103.357,64.9081 104.5,64.5 Z"/></g>
</svg>

<svg fill-rule="evenodd" clip-rule="evenodd" image-rendering="optimizeQuality" shape-rendering="geometricPrecision" text-rendering="geometricPrecision" viewBox="0 0 105 80"><path fill="#ff3534" d="M-.5-.5h15C9.9 6.3 4.9 13-.5 19.5v-20Z"/><path fill="#ff3b35" d="M14.5-.5h8v7a6.9 6.9 0 0 0-4.5 3c-2.1 4.1-5 7.6-8.5 10.5l1 1a44.1 44.1 0 0 0-11 12.5v-14C4.9 13 9.9 6.3 14.5-.5Z"/><path fill="#ff4837" d="M42.5-.5h6a31.4 31.4 0 0 0-7 12 37 37 0 0 1 1-12Z" opacity=".7"/><path fill="#ff4e37" d="M48.5-.5h12a7 7 0 0 1-2 2.5l1 1c-2.4 2.6-4.9 5.1-7.5 7.5-1 2.5-2.1 4.8-3.5 7-2 1.7-3.9 3.7-5.5 6-.2 2.2-.7 4.2-1.5 6v-18c1.4-4.4 3.7-8.4 7-12Z" opacity=".9"/><path fill="#ff5538" d="M65.5-.5h6c.1 1 0 2-.5 3A439 439 0 0 0 58.5 16c2.8 2.2 2.6 2.7-.5 1.5-4.4 6.4-9.4 13-15 20-.2-2.2-.7-4.2-1.5-6v-2c.8-1.8 1.3-3.8 1.5-6 1.6-2.3 3.5-4.3 5.5-6 2.2.7 4.2 0 6-2l-1-2c1.8-2 4.1-4.2 7-6.5a8 8 0 0 1 0-4L62 1.5c3.2 2.7 3.7 2.5 1.5-.5 1-.3 1.6-.8 2-1.5Z"/><path fill="#ff5a39" d="M71.5-.5h12a143 143 0 0 1-14 17.5c.6.4.9.9 1 1.5h-4v4a262 262 0 0 0-23.5 30 8.8 8.8 0 0 0-1.5-4v-17c.8 1.8 1.3 3.8 1.5 6 5.6-7 10.6-13.6 15-20 3.1 1.2 3.3.7.5-1.5 4-4.6 8.2-9 12.5-13.5.5-1 .6-2 .5-3Z"/><path fill="#ff6039" d="M83.5-.5h12a14.4 14.4 0 0 1-6 5.5c.6 1.6-.1 2.9-2 4l1 1c-2.7 2-5 4.3-7 7 1 .3 1.6.8 2 1.5h-13c-.1-.6-.4-1.1-1-1.5 4.8-5 9.5-10.9 14-17.5Z"/><path fill="#ff673a" d="M95.5-.5h9v6c-2 .7-3.7 1.8-5 3.5l1 1a55.1 55.1 0 0 1-6 6.5 31 31 0 0 1 2 2h-13c-.4-.7-1-1.2-2-1.5 2-2.7 4.3-5 7-7l-1-1c1.9-1.1 2.6-2.4 2-4 2.5-1.3 4.5-3.1 6-5.5Z"/><path fill="#ff5238" d="M60.5-.5h5c-.4.7-1 1.2-2 1.5 2.2 3 1.7 3.2-1.5.5L60.5 3a8 8 0 0 0 0 4 51.6 51.6 0 0 0-7 6.5l1 2c-1.8 2-3.8 2.7-6 2 1.4-2.2 2.5-4.5 3.5-7 2.6-2.4 5.1-4.9 7.5-7.5l-1-1a7 7 0 0 0 2-2.5Z"/><path fill="#ff6c3b" d="M104.5 5.5v13h-8a31 31 0 0 0-2-2c2.2-2 4.2-4.2 6-6.5l-1-1c1.3-1.7 3-2.8 5-3.5Z" opacity=".9"/><path fill="#ff4136" d="M22.5 6.5v14c-1.2.5-2.4 1.2-3.5 2-2.5 5.4-6.4 10-11.5 14-1.3 4.6-4 8-8 10v-13c2.8-4.8 6.5-9 11-12.5l-1-1A32 32 0 0 0 18 9.5a6.9 6.9 0 0 1 4.5-3Z"/><path fill="#ff4737" d="M22.5 20.5v14a14 14 0 0 0-4 2.5l1 1a5 5 0 0 1-3 .5c-.1 3-1.6 5-4.5 6a90.6 90.6 0 0 1-9 14c-.7.8-1.5 1-2.5 1h-1v-13c4-2 6.7-5.4 8-10 5.1-4 9-8.6 11.5-14 1.1-.8 2.3-1.5 3.5-2Z"/><path fill="#ff6039" d="M66.5 22.5v7h5a9039.9 9039.9 0 0 1-39 50h-11a184 184 0 0 0 13-18c6.2-2.2 8.5-6.5 7-13a8.8 8.8 0 0 1 1.5 4 262 262 0 0 1 23.5-30Z"/><path fill="#ff663a" d="M71.5 29.5h12a99 99 0 0 0-13 19h-4v4a1497 1497 0 0 0-22 27h-12l39-50Z"/><path fill="#ff6d3b" d="M83.5 29.5c7-1.7 9.7 1 8 8a4 4 0 0 0-3.5 2c-2 3-3.8 6-5.5 9h-12a99 99 0 0 1 13-19Z"/><path fill="#ff4d37" d="M22.5 34.5v15a29.1 29.1 0 0 0-3 4.5l-3 1c1.1.8 1.1 1.6 0 2.5a10.1 10.1 0 0 1-6 5c-.9 2.9-2.2 5.5-4 8a14.2 14.2 0 0 1-6-11c1 0 1.8-.2 2.5-1 3.5-4.4 6.5-9.1 9-14 2.9-1 4.4-3 4.5-6 1 .1 2 0 3-.5l-1-1c1.2-1 2.6-2 4-2.5Z"/><path fill="#ff723c" d="M91.5 37.5a48 48 0 0 1-.5 10 20 20 0 0 1-8.5 1c1.7-3 3.6-6 5.5-9a4 4 0 0 1 3.5-2Z" opacity=".8"/><path fill="#ff6d3b" d="M66.5 52.5v8h6c-3 1.9-5.2 4.5-6.5 8l-1-1c-.5 1.2-1.3 2-2.5 2.5v3l-3 1 1 1a6.9 6.9 0 0 0-3 4.5h-13a1497 1497 0 0 1 22-27Z"/><path fill="#ff5538" d="M22.5 49.5a12 12 0 0 0 3 10c-1.3 2-2.4 4-3.5 6l-1-2c-.7 2.4-1.9 4.6-3.5 6.5 1.2 1 1 1.7-.5 2.5l-1-1a37.8 37.8 0 0 1-3.5 4c-1.5 0-2.5-.6-3-2 1.4-2.5 2.4-5.1 3-8 2 .3 3.6-.2 5-1.5a11 11 0 0 1-1-6.5c1.1-.9 1.1-1.7 0-2.5l3-1c.9-1.7 1.9-3.2 3-4.5Z"/><path fill="#ff5238" d="M16.5 57.5a11 11 0 0 0 1 6.5 5.9 5.9 0 0 1-5 1.5c-.6 2.9-1.6 5.5-3 8a6.5 6.5 0 0 1-3-3c1.8-2.5 3.1-5.1 4-8 2.6-.8 4.6-2.5 6-5Z"/><path fill="#ff5a39" d="M25.5 59.5c2.7 1.6 5.7 2.3 9 2a184 184 0 0 1-13 18h-2c-2.5-1-4.8-2.4-7-4 1.2-1.2 2.4-2.6 3.5-4l1 1c1.5-.8 1.7-1.6.5-2.5 1.6-2 2.8-4.1 3.5-6.5l1 2c1-2 2.2-4 3.5-6Z"/><path fill="#ff733c" d="M72.5 60.5h8c1.3 1 1.3 2 0 3-4.2 5.5-8.5 10.8-13 16h-10a6.9 6.9 0 0 1 3-4.5l-1-1 3-1v-3c1.2-.5 2-1.3 2.5-2.5l1 1c1.3-3.5 3.5-6.1 6.5-8Z"/><path fill="#ff793c" d="M80.5 60.5h14a70 70 0 0 0-5 3.5c.8 1.6.2 2.6-2 3l1 1c-3.2 3.7-6.2 7.5-9 11.5h-12c4.5-5.2 8.8-10.5 13-16 1.3-1 1.3-2 0-3Z"/><path fill="#ff803d" d="M94.5 60.5h10v4c-1.1.4-2.1 1-3 2-2.8 4.6-5.8 9-9 13h-13c2.8-4 5.8-7.8 9-11.5l-1-1c2.2-.4 2.8-1.4 2-3a70 70 0 0 1 5-3.5Z"/><path fill="#ff873e" d="M104.5 73.5v6h-7c2.3-1.9 4.1-4.2 5.5-7 .4.6.9.9 1.5 1Z"/><path fill="#ff853e" d="M104.5 64.5v9c-.6-.1-1.1-.4-1.5-1a20.7 20.7 0 0 1-5.5 7h-5c3.2-4 6.2-8.4 9-13 .9-1 1.9-1.6 3-2Z"/></svg>
